res/luts/Vibrant.CUBE
#Created by: Adobe Photoshop Export Color Lookup Plugin
TITLE "Vibrant"
#LUT size
LUT_3D_SIZE 8
#data domain
#LUT data points
DOMAIN_MIN 0.000000 0.000000 0.000000
DOMAIN_MAX 0.903226 0.903226 0.903226
0.060333 0.006622 0.013428
0.108521 0.000000 0.014099
0.120605 0.000000 0.013947
0.049683 0.002045 0.000000
0.133453 0.000000 0.015381
0.656555 0.038788 0.000000
0.206207 0.073883 0.085052
0.662262 0.039276 0.000000
0.141815 0.000000 0.015656
0.160950 0.000000 0.015869
0.128967 0.000000 0.006256
0.138275 0.007416 0.006927
0.099792 0.009125 0.003754
0.662262 0.039276 0.000000
0.126648 0.110291 0.097656
0.662262 0.039276 0.000000
0.183441 0.000000 0.016449
0.194641 0.000000 0.016479
0.207489 0.000000 0.009125
0.131134 0.000000 0.013916
0.226288 0.000000 0.014526
0.231262 0.000000 0.013947
0.355621 0.000580 0.019653
0.662262 0.039276 0.000000
0.648468 0.037842 0.000000
0.656555 0.038788 0.000000
0.619537 0.038269 0.000000
0.039032 0.049530 0.057343
0.426819 0.011993 0.000000
0.370575 0.005157 0.000000
0.114288 0.026459 0.037323
0.662262 0.039276 0.000000
0.210754 0.000000 0.015900
0.231262 0.000000 0.013947
0.259827 0.000000 0.009949
0.189423 0.000000 0.016418
0.306915 0.000000 0.003510
0.343079 0.001678 0.000000
0.189331 0.061615 0.062775
0.662262 0.039276 0.000000
0.196564 0.000000 0.015686
0.192230 0.000000 0.016846
0.206665 0.000000 0.016968
0.105377 0.000000 0.013519
0.202972 0.000000 0.016449
0.210754 0.000000 0.015900
0.034546 0.049408 0.048065
0.201233 0.027863 0.045715
0.207428 0.000000 0.015350
0.207428 0.000000 0.015350
0.197296 0.000000 0.001648
0.136658 0.005676 0.012726
0.218201 0.000000 0.014984
0.226288 0.000000 0.014526
0.047272 0.054321 0.040192
0.226288 0.000000 0.014526
0.218201 0.000000 0.014984
0.199463 0.000000 0.015839
0.190338 0.000000 0.008545
0.115692 0.000000 0.005981
0.178223 0.000000 0.016663
0.163361 0.000000 0.016510
0.035858 0.062653 0.054138
0.173401 0.000000 0.017365
0.102173 0.000000 0.012878
0.111694 0.000000 0.014679
0.117065 0.000000 0.007080
0.050598 0.008209 0.013641
0.136353 0.000000 0.015503
0.659180 0.039276 0.000000
0.203094 0.066437 0.076660
0.662262 0.039276 0.000000
0.141815 0.000000 0.015656
0.160950 0.000000 0.015869
0.137207 0.000000 0.006592
0.131775 0.001648 0.000000
0.233276 0.000000 0.013214
0.662262 0.039276 0.000000
0.131073 0.124023 0.111633
0.662262 0.039276 0.000000
0.185852 0.000000 0.016052
0.199463 0.000000 0.015839
0.211304 0.000000 0.007233
0.133850 0.000000 0.013824
0.231262 0.000000 0.013947
0.233276 0.000000 0.013214
0.365936 0.012115 0.024292
0.662262 0.039276 0.000000
0.623535 0.035156 0.000000
0.623535 0.035156 0.000000
0.477692 0.000244 0.000000
0.278503 0.000000 0.007751
0.414062 0.010315 0.000000
0.360596 0.003876 0.000000
0.111206 0.017731 0.028992
0.662262 0.039276 0.000000
0.210754 0.000000 0.015900
0.004028 0.010132 0.009674
0.262573 0.000000 0.009796
0.181885 0.000000 0.008362
0.000000 0.000000 0.000000
0.345551 0.002014 0.000000
0.192413 0.069672 0.072662
0.662262 0.039276 0.000000
0.003601 0.028870 0.016724
0.192230 0.000000 0.016846
0.211304 0.000000 0.015839
0.102173 0.000000 0.012878
0.202972 0.000000 0.016449
0.207428 0.000000 0.015350
0.061829 0.044556 0.049469
0.215271 0.000000 0.014862
0.204895 0.000000 0.015656
0.075256 0.053131 0.030853
0.211823 0.000702 0.003601
0.132446 0.015686 0.021057
0.213745 0.000000 0.016083
0.220215 0.000000 0.014252
0.045868 0.061218 0.045532
0.226288 0.000000 0.014526
0.220215 0.000000 0.014252
0.199463 0.000000 0.015839
0.192993 0.000000 0.008392
0.115692 0.000000 0.005981
0.178223 0.000000 0.016663
0.175354 0.000000 0.016510
0.035858 0.062653 0.054138
0.173401 0.000000 0.017365
0.105377 0.000000 0.013519
0.087616 0.002045 0.012878
0.117065 0.000000 0.007080
0.017822 0.020355 0.011108
0.139557 0.000000 0.016083
0.662262 0.039276 0.000000
0.214752 0.064026 0.075470
0.662262 0.039276 0.000000
0.141815 0.000000 0.015656
0.160950 0.000000 0.015869
0.162994 0.005859 0.000000
0.131775 0.001648 0.000000
0.231262 0.000000 0.013947
0.662262 0.039276 0.000000
0.191864 0.077545 0.080963
0.662262 0.039276 0.000000
0.192230 0.000000 0.016846
0.204895 0.000000 0.015656
0.214142 0.000000 0.014282
0.137360 0.000000 0.014923
0.239258 0.000000 0.013428
0.259888 0.000000 0.008759
0.367859 0.019470 0.038940
0.662262 0.039276 0.000000
0.593689 0.031586 0.000000
0.596497 0.031891 0.000000
0.560944 0.028198 0.000000
0.263367 0.000000 0.009399
0.400909 0.009094 0.000000
0.353363 0.002747 0.000000
0.111206 0.017731 0.028992
0.662262 0.039276 0.000000
0.207428 0.000000 0.015350
0.228729 0.000000 0.014252
0.258392 0.000000 0.003662
0.179443 0.000000 0.008575
0.308929 0.000000 0.002930
0.348572 0.001953 0.000000
0.034363 0.039429 0.022125
0.709167 0.017365 0.034607
0.202972 0.000000 0.016449
0.196564 0.000000 0.015686
0.211304 0.000000 0.015839
0.102173 0.000000 0.012878
0.199463 0.000000 0.015839
0.204895 0.000000 0.015656
0.059540 0.053040 0.057556
0.215271 0.000000 0.014862
0.202972 0.000000 0.016449
0.202972 0.000000 0.016449
0.214783 0.000000 0.008484
0.128204 0.014801 0.027832
0.210754 0.000000 0.015900
0.095428 0.050385 0.053009
0.050751 0.054901 0.040039
0.226288 0.000000 0.014526
0.226288 0.000000 0.014526
0.204895 0.000000 0.015656
0.195343 0.000000 0.015106
0.115692 0.000000 0.005981
0.180603 0.000000 0.016327
0.175354 0.000000 0.016510
0.040222 0.061188 0.044983
0.173401 0.000000 0.017365
0.105377 0.000000 0.013519
0.088531 0.000000 0.003967
0.119110 0.000000 0.006622
0.055756 0.011658 0.009369
0.141815 0.000000 0.015656
0.662262 0.039276 0.000000
0.215027 0.055084 0.064636
0.662262 0.039276 0.000000
0.143982 0.000000 0.015198
0.164276 0.000000 0.016479
0.173798 0.005524 0.000000
0.131775 0.001648 0.000000
0.228729 0.000000 0.014252
0.662262 0.039276 0.000000
0.171356 0.088776 0.089081
0.662262 0.039276 0.000000
0.194641 0.000000 0.016479
0.145325 0.000000 0.014526
0.222443 0.000000 0.014160
0.143219 0.000000 0.015289
0.243713 0.000000 0.012390
0.247467 0.000000 0.010742
0.367340 0.028564 0.049835
0.662262 0.039276 0.000000
0.563782 0.028351 0.000000
0.561249 0.027954 0.000000
0.544250 0.019653 0.000000
0.253906 0.000000 0.011169
0.388306 0.007385 0.000000
0.345551 0.002014 0.000000
0.107147 0.018555 0.029053
0.662262 0.039276 0.000000
0.207428 0.000000 0.015350
0.226288 0.000000 0.014526
0.253601 0.000000 0.004456
0.179443 0.000000 0.008575
0.308929 0.000000 0.002930
0.345551 0.002014 0.000000
0.047943 0.025726 0.020386
0.662262 0.039276 0.000000
0.204895 0.000000 0.015656
0.196564 0.000000 0.015686
0.004669 0.037842 0.024963
0.102173 0.000000 0.012878
0.196564 0.000000 0.015686
0.204895 0.000000 0.015656
0.059875 0.060699 0.065338
0.213745 0.000000 0.016083
0.196564 0.000000 0.015686
0.199463 0.000000 0.015839
0.214783 0.000000 0.008484
0.129730 0.006622 0.012482
0.210754 0.000000 0.015900
0.215271 0.000000 0.014862
0.047272 0.054321 0.040192
0.223724 0.000000 0.014862
0.231262 0.000000 0.013947
0.207428 0.000000 0.015350
0.195343 0.000000 0.015106
0.112396 0.000000 0.013824
0.180603 0.000000 0.016327
0.178223 0.000000 0.016663
0.040222 0.061188 0.044983
0.173401 0.000000 0.017365
0.108521 0.000000 0.014099
0.114471 0.000000 0.014771
0.119110 0.000000 0.006622
0.055756 0.011658 0.009369
0.143982 0.000000 0.015198
0.662262 0.039276 0.000000
0.220825 0.061615 0.079193
0.662262 0.039276 0.000000
0.134277 0.000000 0.006165
0.164276 0.000000 0.016479
0.187408 0.005219 0.000000
0.127014 0.000000 0.006989
0.226288 0.000000 0.014526
0.662262 0.039276 0.000000
0.196838 0.091156 0.094238
0.662262 0.039276 0.000000
0.202972 0.000000 0.016449
0.223724 0.000000 0.014862
0.230316 0.000000 0.013428
0.148743 0.000000 0.015503
0.251251 0.000000 0.011414
0.253906 0.000000 0.011169
0.360870 0.011169 0.027985
0.662262 0.039276 0.000000
0.531738 0.024536 0.000000
0.526520 0.023773 0.000000
0.510284 0.020294 0.000000
0.241211 0.000000 0.012665
0.376221 0.005432 0.000000
0.335907 0.000580 0.000000
0.100311 0.010132 0.021027
0.024750 0.061249 0.042969
0.204895 0.000000 0.015656
0.223724 0.000000 0.014862
0.259827 0.000000 0.009949
0.176636 0.000000 0.008636
0.308929 0.000000 0.002930
0.343079 0.001678 0.000000
0.052765 0.012299 0.009979
0.662262 0.039276 0.000000
0.215271 0.000000 0.014862
0.199463 0.000000 0.015839
0.211487 0.000000 0.008881
0.001282 0.020294 0.006958
0.196564 0.000000 0.015686
0.202972 0.000000 0.016449
0.058258 0.060272 0.073486
0.213745 0.000000 0.016083
0.194641 0.000000 0.016479
0.194641 0.000000 0.016479
0.202698 0.000000 0.001526
0.129730 0.006622 0.012482
0.207428 0.000000 0.015350
0.210754 0.000000 0.015900
0.045868 0.061218 0.045532
0.220215 0.000000 0.014252
0.235748 0.000000 0.012848
0.213745 0.000000 0.016083
0.198334 0.000000 0.015411
0.114441 0.000000 0.013000
0.067139 0.009705 0.007172
0.178223 0.000000 0.016663
0.041595 0.062073 0.044647
0.173401 0.000000 0.017365
0.108521 0.000000 0.014099
0.114471 0.000000 0.014771
0.099609 0.000000 0.011078
0.058685 0.011078 0.008728
0.097931 0.002106 0.004272
0.662262 0.039276 0.000000
0.232544 0.068848 0.082642
0.662262 0.039276 0.000000
0.133453 0.000000 0.015381
0.170471 0.000000 0.017181
0.200043 0.000000 0.001617
0.131775 0.001648 0.000000
0.226288 0.000000 0.014526
0.242523 0.031586 0.040344
0.196625 0.090302 0.099915
0.662262 0.039276 0.000000
0.210754 0.000000 0.015900
0.231262 0.000000 0.013947
0.237000 0.000000 0.011627
0.152588 0.000000 0.016663
0.258911 0.000000 0.010559
0.260620 0.000000 0.009552
0.360413 0.021484 0.041412
0.672241 0.010162 0.000000
0.502411 0.021210 0.000000
0.494598 0.020172 0.000000
0.469208 0.018097 0.000000
0.233276 0.000000 0.013214
0.363647 0.003815 0.000000
0.328064 0.000000 0.000092
0.061157 0.036530 0.040192
0.662262 0.039276 0.000000
0.204895 0.000000 0.015656
0.223724 0.000000 0.014862
0.251251 0.000000 0.005035
0.176636 0.000000 0.008636
0.304077 0.000000 0.003571
0.345551 0.002014 0.000000
0.049164 0.036499 0.030334
0.662262 0.039276 0.000000
0.215271 0.000000 0.014862
0.199463 0.000000 0.015839
0.213989 0.000000 0.008575
0.121246 0.006439 0.019897
0.199463 0.000000 0.015839
0.202972 0.000000 0.016449
0.058716 0.053131 0.064911
0.207428 0.000000 0.015350
0.101379 0.028687 0.022949
0.192230 0.000000 0.016846
0.199951 0.000000 0.008392
0.121246 0.006439 0.019897
0.204895 0.000000 0.015656
0.207428 0.000000 0.015350
0.049591 0.044830 0.039642
0.218201 0.000000 0.014984
0.241211 0.000000 0.012665
0.218201 0.000000 0.014984
0.109131 0.000549 0.005371
0.120941 0.000000 0.005920
0.185852 0.000000 0.016052
0.180603 0.000000 0.016327
0.041595 0.062073 0.044647
0.173401 0.000000 0.017365
0.108521 0.000000 0.014099
0.114471 0.000000 0.014771
0.106476 0.000000 0.012878
0.053589 0.007599 0.013092
0.141815 0.000000 0.015656
0.662262 0.039276 0.000000
0.248993 0.087555 0.102570
0.662262 0.039276 0.000000
0.147797 0.000000 0.016296
0.167175 0.000000 0.016602
0.208313 0.000000 0.001831
0.129852 0.000977 0.000000
0.223724 0.000000 0.014862
0.662262 0.039276 0.000000
0.198639 0.075256 0.085541
0.662262 0.039276 0.000000
0.218201 0.000000 0.014984
0.241211 0.000000 0.012665
0.244385 0.000000 0.010498
0.013062 0.010437 0.010925
0.271240 0.000000 0.008728
0.265839 0.000000 0.009094
0.379181 0.034515 0.058167
0.662262 0.039276 0.000000
0.473419 0.017670 0.000000
0.462921 0.016510 0.000000
0.446411 0.014923 0.000000
0.231689 0.000000 0.019012
0.035339 0.030090 0.031006
0.321564 0.000000 0.001648
0.095581 0.030029 0.037994
0.662262 0.039276 0.000000
0.202972 0.000000 0.016449
0.223724 0.000000 0.014862
0.257690 0.000000 0.010620
0.170685 0.000000 0.015411
0.304077 0.000000 0.003571
0.341187 0.001007 0.000000
0.054077 0.043152 0.031342
0.662262 0.039276 0.000000
0.220215 0.000000 0.014252
0.204895 0.000000 0.015656
0.212402 0.000000 0.013855
0.121246 0.006439 0.019897
0.199463 0.000000 0.015839
0.092468 0.040955 0.041229
0.058258 0.060272 0.073486
0.207428 0.000000 0.015350
0.192230 0.000000 0.016846
0.188293 0.000000 0.015778
0.203552 0.000000 0.009399
0.118439 0.008911 0.013367
0.199463 0.000000 0.015839
0.207428 0.000000 0.015350
0.049591 0.044830 0.039642
0.218201 0.000000 0.014984
0.243713 0.000000 0.012390
0.223724 0.000000 0.014862
0.203369 0.000000 0.007690
0.120941 0.000000 0.005920
0.180603 0.000000 0.016327
0.180603 0.000000 0.016327
0.048096 0.053375 0.047577
0.175354 0.000000 0.016510
0.108521 0.000000 0.014099
0.116547 0.000000 0.014343
0.122894 0.000000 0.007812
0.058685 0.011078 0.008728
0.158569 0.000000 0.016235
0.662262 0.039276 0.000000
0.245667 0.080719 0.094849
0.662262 0.039276 0.000000
0.147797 0.000000 0.016296
0.167175 0.000000 0.016602
0.197876 0.005463 0.000000
0.127014 0.000000 0.006989
0.220215 0.000000 0.014252
0.662262 0.039276 0.000000
0.198639 0.075256 0.085541
0.689240 0.044922 0.000000
0.228729 0.000000 0.014252
0.248749 0.000000 0.011719
0.252106 0.000000 0.009796
0.164948 0.000000 0.015167
0.278503 0.000000 0.007751
0.275909 0.000000 0.007935
0.107178 0.044312 0.039764
0.662262 0.039276 0.000000
0.441986 0.014130 0.000000
0.434662 0.012848 0.000000
0.421570 0.011322 0.000000
0.213745 0.000000 0.016083
0.343079 0.001678 0.000000
0.316315 0.000000 0.001923
0.099121 0.039032 0.048462
0.662262 0.039276 0.000000
0.119537 0.049500 0.046753
0.220215 0.000000 0.014252
0.248077 0.000000 0.004730
0.171600 0.000000 0.008911
0.299469 0.000000 0.004395
0.335907 0.000580 0.000000
0.057037 0.042450 0.030609
0.662262 0.039276 0.000000
0.223724 0.000000 0.014862
0.210754 0.000000 0.015900
0.219452 0.000000 0.008301
0.121246 0.006439 0.019897
0.196564 0.000000 0.015686
0.202972 0.000000 0.016449
0.059875 0.060699 0.065338
0.207428 0.000000 0.015350
0.188293 0.000000 0.015778
0.188293 0.000000 0.015778
0.203552 0.000000 0.009399
0.117737 0.006561 0.018860
0.020935 0.076691 0.049286
0.202972 0.000000 0.016449
0.009979 0.046204 0.034088
0.213745 0.000000 0.016083
0.251251 0.000000 0.011414
0.114105 0.004395 0.001617
0.209198 0.000000 0.007904
0.123901 0.000000 0.006439
0.183441 0.000000 0.016449
0.183441 0.000000 0.016449
0.048096 0.053375 0.047577
0.175354 0.000000 0.016510
