res/luts/Vibrant.CUBE
#Created by: Adobe Photoshop Export Color Lookup Plugin
TITLE "Vibrant"
#LUT size
LUT_3D_SIZE 5
#data domain
#LUT data points
DOMAIN_MIN 0.000000 0.000000 0.000000
DOMAIN_MAX 0.903226 0.903226 0.903226
0.060333 0.006622 0.013428
0.009369 0.029327 0.017426
0.127472 0.000000 0.014709
0.662262 0.039276 0.000000
0.662262 0.039276 0.000000
0.167175 0.000000 0.016602
0.112488 0.010071 0.014709
0.194641 0.000000 0.016479
0.662262 0.039276 0.000000
0.662262 0.039276 0.000000
0.289032 0.000000 0.007477
0.161774 0.000000 0.016602
0.287201 0.000000 0.005829
0.284973 0.000000 0.006256
0.662262 0.039276 0.000000
0.226288 0.000000 0.014526
0.104279 0.009766 0.021973
0.196564 0.000000 0.015686
0.199463 0.000000 0.015839
0.204895 0.000000 0.015656
0.218201 0.000000 0.014984
0.120605 0.000000 0.013947
0.180603 0.000000 0.016327
0.057861 0.032745 0.020905
0.173401 0.000000 0.017365
0.102173 0.000000 0.012878
0.040436 0.015900 0.011780
0.130859 0.000000 0.015381
0.662262 0.039276 0.000000
0.662262 0.039276 0.000000
0.167175 0.000000 0.016602
0.111572 0.008240 0.021240
0.199463 0.000000 0.015839
0.207428 0.000000 0.015350
0.662262 0.039276 0.000000
0.268982 0.000000 0.009247
0.156586 0.000000 0.017059
0.280121 0.000000 0.006836
0.287201 0.000000 0.005829
0.662262 0.039276 0.000000
0.231262 0.000000 0.013947
0.092010 0.030365 0.025360
0.199463 0.000000 0.015839
0.199463 0.000000 0.015839
0.204895 0.000000 0.015656
0.226288 0.000000 0.014526
0.123657 0.000000 0.014496
0.181030 0.000000 0.009674
0.173401 0.000000 0.017365
0.173401 0.000000 0.017365
0.108521 0.000000 0.014099
0.040436 0.015900 0.011780
0.136353 0.000000 0.015503
0.662262 0.039276 0.000000
0.662262 0.039276 0.000000
0.170471 0.000000 0.017181
0.111877 0.000000 0.004242
0.204895 0.000000 0.015656
0.213745 0.000000 0.016083
0.662262 0.039276 0.000000
0.253906 0.000000 0.011169
0.143402 0.000000 0.007629
0.278503 0.000000 0.007751
0.292664 0.000000 0.005646
0.117493 0.210205 0.166809
0.241211 0.000000 0.012665
0.115692 0.000000 0.005981
0.036591 0.039307 0.031006
0.202972 0.000000 0.016449
0.202972 0.000000 0.016449
0.233276 0.000000 0.013214
0.128967 0.000000 0.006256
0.180603 0.000000 0.016327
0.175354 0.000000 0.016510
0.173401 0.000000 0.017365
0.108521 0.000000 0.014099
0.043304 0.015259 0.011078
0.139557 0.000000 0.016083
0.662262 0.039276 0.000000
0.662262 0.039276 0.000000
0.175354 0.000000 0.016510
0.113892 0.007263 0.018829
0.210754 0.000000 0.015900
0.218201 0.000000 0.014984
0.662262 0.039276 0.000000
0.243713 0.000000 0.012390
0.010284 0.038391 0.026367
0.265839 0.000000 0.009094
0.301880 0.000000 0.003967
0.662262 0.039276 0.000000
0.046906 0.035248 0.014679
0.122284 0.008301 0.013489
0.207428 0.000000 0.015350
0.202972 0.000000 0.016449
0.199463 0.000000 0.015839
0.241211 0.000000 0.012665
0.131653 0.000000 0.006195
0.185852 0.000000 0.016052
0.178223 0.000000 0.016663
0.175354 0.000000 0.016510
0.108521 0.000000 0.014099
0.043304 0.015259 0.011078
0.060333 0.006622 0.013428
0.662262 0.039276 0.000000
0.662262 0.039276 0.000000
0.178223 0.000000 0.016663
0.115692 0.000000 0.005981
0.220215 0.000000 0.014252
0.223724 0.000000 0.014862
0.662262 0.039276 0.000000
0.239258 0.000000 0.013428
0.133850 0.000000 0.013824
0.280121 0.000000 0.006836
0.306915 0.000000 0.003510
0.662262 0.039276 0.000000
0.251251 0.000000 0.011414
0.126068 0.007202 0.012451
0.207428 0.000000 0.015350
0.204895 0.000000 0.015656
0.199463 0.000000 0.015839
0.251251 0.000000 0.011414
0.137207 0.000000 0.006592
0.185852 0.000000 0.016052
0.180603 0.000000 0.016327
0.175354 0.000000 0.016510
