res/luts/Vibrant.CUBE
#Created by: Adobe Photoshop Export Color Lookup Plugin
TITLE "Vibrant"
#LUT size
LUT_3D_SIZE 32
#data domain
DOMAIN_MIN 0.0 0.0 0.0
DOMAIN_MAX 1.0 1.0 1.0
#LUT data points
0.060333 0.006622 0.013428
0.105377 0.000000 0.013519
0.074158 0.000000 0.001801
0.063141 0.006134 0.012878
0.108521 0.000000 0.014099
0.111694 0.000000 0.014679
0.085968 0.000000 0.003876
0.009369 0.029327 0.017426
0.120605 0.000000 0.013947
0.116547 0.000000 0.014343
0.119354 0.000000 0.014435
0.119354 0.000000 0.014435
0.049683 0.002045 0.000000
0.115692 0.000000 0.005981
0.127472 0.000000 0.014709
0.130859 0.000000 0.015381
0.133453 0.000000 0.015381
0.560577 0.030121 0.000000
0.337555 0.011047 0.015900
0.651093 0.038147 0.000000
0.656555 0.038788 0.000000
0.662262 0.039276 0.000000
0.662262 0.039276 0.000000
0.556213 0.027008 0.000000
0.206207 0.073883 0.085052
0.662262 0.039276 0.000000
0.662262 0.039276 0.000000
0.662262 0.039276 0.000000
0.662262 0.039276 0.000000
0.662262 0.039276 0.000000
0.279480 0.027771 0.056519
0.232849 0.160889 0.159668
0.111694 0.000000 0.014679
0.111694 0.000000 0.014679
0.077637 0.000000 0.011200
0.069733 0.004822 0.012238
0.116547 0.000000 0.014343
0.119354 0.000000 0.014435
0.119354 0.000000 0.014435
0.039612 0.009644 0.014221
0.122894 0.000000 0.007812
0.127472 0.000000 0.014709
0.130859 0.000000 0.015381
0.136353 0.000000 0.015503
0.058685 0.011078 0.008728
0.045013 0.008972 0.014008
0.147797 0.000000 0.016296
0.155792 0.000000 0.016083
0.160950 0.000000 0.015869
0.644440 0.039185 0.000000
0.384949 0.044464 0.059418
0.662262 0.039276 0.000000
0.662262 0.039276 0.000000
0.530792 0.007782 0.000000
0.533630 0.011078 0.000000
0.705414 0.003448 0.000000
0.252594 0.086914 0.102234
0.662262 0.039276 0.000000
0.662262 0.039276 0.000000
0.662262 0.039276 0.000000
0.662262 0.039276 0.000000
0.463074 0.000000 0.018188
0.084930 0.084717 0.087524
0.634735 0.003113 0.000000
0.116547 0.000000 0.014343
0.119354 0.000000 0.014435
0.090424 0.000000 0.003387
0.048828 0.014191 0.010468
0.087646 0.004333 0.005768
0.133453 0.000000 0.015381
0.136353 0.000000 0.015503
0.046906 0.002533 0.000336
0.142212 0.000000 0.008728
0.150635 0.000000 0.016388
0.153992 0.000000 0.017029
0.158569 0.000000 0.016235
0.029205 0.019165 0.011810
0.165619 0.001068 0.001404
0.178223 0.000000 0.016663
0.183441 0.000000 0.016449
0.192230 0.000000 0.016846
0.190338 0.000000 0.008545
0.341370 0.025909 0.045776
0.662262 0.039276 0.000000
0.662262 0.039276 0.000000
0.662262 0.039276 0.000000
0.662262 0.039276 0.000000
0.523193 0.022095 0.000000
0.052582 0.044220 0.039032
0.682068 0.045624 0.000000
0.662262 0.039276 0.000000
0.662262 0.039276 0.000000
0.662262 0.039276 0.000000
0.662262 0.039276 0.000000
0.269989 0.051056 0.071533
0.669342 0.009979 0.000000
0.130859 0.000000 0.015381
0.060272 0.011780 0.008484
0.099609 0.000000 0.011078
0.085968 0.000000 0.003876
0.143982 0.000000 0.015198
0.147797 0.000000 0.016296
0.153992 0.000000 0.017029
0.095520 0.002716 0.005676
0.171906 0.000000 0.002014
0.173401 0.000000 0.017365
0.178223 0.000000 0.016663
0.183441 0.000000 0.016449
0.093506 0.020782 0.006927
0.172821 0.000000 0.001404
0.207428 0.000000 0.015350
0.218201 0.000000 0.014984
0.228729 0.000000 0.014252
0.204956 0.000000 0.008759
0.095398 0.011047 0.004822
0.662262 0.039276 0.000000
0.662262 0.039276 0.000000
0.662262 0.039276 0.000000
0.662262 0.039276 0.000000
0.541138 0.024567 0.000000
0.085602 0.068878 0.062347
0.683228 0.044708 0.000000
0.662262 0.039276 0.000000
0.662262 0.039276 0.000000
0.482056 0.018372 0.000000
0.410309 0.008606 0.000000
0.283691 0.000000 0.016541
0.688599 0.012939 0.000000
0.141815 0.000000 0.015656
0.143982 0.000000 0.015198
0.085968 0.000000 0.011963
0.106873 0.006653 0.003174
0.160950 0.000000 0.015869
0.164276 0.000000 0.016479
0.170471 0.000000 0.017181
0.087616 0.002045 0.012878
0.128967 0.000000 0.006256
0.188293 0.000000 0.015778
0.194641 0.000000 0.016479
0.202972 0.000000 0.016449
0.138275 0.007416 0.006927
0.185730 0.005768 0.000000
0.220215 0.000000 0.014252
0.228729 0.000000 0.014252
0.099792 0.009125 0.003754
0.204651 0.011292 0.000000
0.099609 0.028412 0.015533
0.662262 0.039276 0.000000
0.662262 0.039276 0.000000
0.662262 0.039276 0.000000
0.662262 0.039276 0.000000
0.602875 0.021790 0.000000
0.126648 0.110291 0.097656
0.657928 0.039673 0.000000
0.662262 0.039276 0.000000
0.662262 0.039276 0.000000
0.662262 0.039276 0.000000
0.662262 0.039276 0.000000
0.247986 0.000000 0.007996
0.684601 0.014038 0.000000
0.153992 0.000000 0.017029
0.155792 0.000000 0.016083
0.095581 0.000000 0.011566
0.114105 0.004395 0.001617
0.109985 0.000000 0.014069
0.124847 0.000000 0.014648
0.178223 0.000000 0.016663
0.117188 0.003815 0.000977
0.193726 0.000000 0.002228
0.192230 0.000000 0.016846
0.194641 0.000000 0.016479
0.199463 0.000000 0.015839
0.123901 0.000000 0.006439
0.164886 0.000000 0.000336
0.213745 0.000000 0.016083
0.215271 0.000000 0.014862
0.220215 0.000000 0.014252
0.178253 0.000000 0.009583
0.081421 0.025421 0.016937
0.228729 0.000000 0.014252
0.662262 0.039276 0.000000
0.662262 0.039276 0.000000
0.662262 0.039276 0.000000
0.574738 0.022156 0.000000
0.201019 0.059387 0.062195
0.660675 0.039825 0.000000
0.662262 0.039276 0.000000
0.430359 0.000000 0.000732
0.503601 0.008484 0.000000
0.662262 0.039276 0.000000
0.237549 0.040649 0.057220
0.701233 0.004608 0.000000
0.155792 0.000000 0.016083
0.146545 0.000000 0.008148
0.026428 0.030945 0.021423
0.117767 0.000000 0.005280
0.173401 0.000000 0.017365
0.173401 0.000000 0.017365
0.175354 0.000000 0.016510
0.115692 0.000000 0.005981
0.190338 0.000000 0.008545
0.183441 0.000000 0.016449
0.188293 0.000000 0.015778
0.188293 0.000000 0.015778
0.114441 0.000000 0.013000
0.029510 0.045959 0.028778
0.151215 0.000000 0.009644
0.196564 0.000000 0.015686
0.199463 0.000000 0.015839
0.163818 0.000000 0.008850
0.069092 0.018768 0.008789
0.204895 0.000000 0.015656
0.204895 0.000000 0.015656
0.662262 0.039276 0.000000
0.662262 0.039276 0.000000
0.581818 0.017059 0.000000
0.220764 0.108276 0.114166
0.660675 0.039825 0.000000
0.662262 0.039276 0.000000
0.662262 0.039276 0.000000
0.662262 0.039276 0.000000
0.653870 0.038483 0.000000
0.202728 0.009705 0.018127
0.670166 0.013916 0.000000
0.167175 0.000000 0.016602
0.167175 0.000000 0.016602
0.111145 0.000000 0.006317
0.120941 0.000000 0.005920
0.175354 0.000000 0.016510
0.180603 0.000000 0.016327
0.180603 0.000000 0.016327
0.112488 0.010071 0.014709
0.192993 0.000000 0.008392
0.188293 0.000000 0.015778
0.188293 0.000000 0.015778
0.184998 0.000000 0.008759
0.017822 0.020355 0.011108
0.168304 0.000000 0.008423
0.194641 0.000000 0.016479
0.199463 0.000000 0.015839
0.199463 0.000000 0.015839
0.163818 0.000000 0.008850
0.064301 0.010071 0.007629
0.202972 0.000000 0.016449
0.202972 0.000000 0.016449
0.662262 0.039276 0.000000
0.662262 0.039276 0.000000
0.553680 0.022583 0.000000
0.247375 0.101990 0.116608
0.762573 0.000000 0.002411
0.250061 0.127777 0.124878
0.618469 0.018127 0.000000
0.662262 0.039276 0.000000
0.662262 0.039276 0.000000
0.299469 0.014526 0.034637
0.650604 0.023346 0.000000
0.183441 0.000000 0.016449
0.185852 0.000000 0.016052
0.125641 0.000000 0.007874
0.140167 0.004822 0.011871
0.194641 0.000000 0.016479
0.199463 0.000000 0.015839
0.202972 0.000000 0.016449
0.117767 0.000000 0.005280
0.207489 0.000000 0.009125
0.215271 0.000000 0.014862
0.218201 0.000000 0.014984
0.220215 0.000000 0.014252
0.131134 0.000000 0.013916
0.198120 0.000000 0.008026
0.223724 0.000000 0.014862
0.226288 0.000000 0.014526
0.226288 0.000000 0.014526
0.217438 0.000000 0.014587
0.074432 0.017151 0.016968
0.228729 0.000000 0.014252
0.231262 0.000000 0.013947
0.228729 0.000000 0.014252
0.662262 0.039276 0.000000
0.468353 0.008453 0.000000
0.355621 0.000580 0.019653
0.662262 0.039276 0.000000
0.662262 0.039276 0.000000
0.662262 0.039276 0.000000
0.662262 0.039276 0.000000
0.662262 0.039276 0.000000
0.292725 0.006500 0.025238
0.678528 0.009949 0.000000
0.235748 0.000000 0.012848
0.243713 0.000000 0.012390
0.170471 0.000000 0.017181
0.179443 0.000000 0.008575
0.260620 0.000000 0.009552
0.263367 0.000000 0.009399
0.268982 0.000000 0.009247
0.139984 0.000000 0.014740
0.211304 0.000000 0.015839
0.280121 0.000000 0.006836
0.282745 0.000000 0.006775
0.282745 0.000000 0.006775
0.170685 0.000000 0.015411
0.274719 0.000000 0.004028
0.289917 0.000000 0.005737
0.289917 0.000000 0.005737
0.289917 0.000000 0.005737
0.264526 0.000000 0.007935
0.087280 0.012024 0.021149
0.284973 0.000000 0.006256
0.284973 0.000000 0.006256
0.284973 0.000000 0.006256
0.280121 0.000000 0.006836
0.446411 0.014923 0.000000
0.168640 0.019043 0.020538
0.683228 0.044708 0.000000
0.662262 0.039276 0.000000
0.662262 0.039276 0.000000
0.662262 0.039276 0.000000
0.662262 0.039276 0.000000
0.309082 0.073792 0.098083
0.548615 0.035950 0.054718
0.355469 0.003387 0.000000
0.368347 0.004669 0.000000
0.241211 0.000000 0.012665
0.306671 0.000000 0.003296
0.398773 0.008484 0.000000
0.406097 0.009613 0.000000
0.411011 0.010345 0.000000
0.244751 0.000000 0.012115
0.427673 0.011169 0.000000
0.421906 0.011139 0.000000
0.423981 0.011810 0.000000
0.423981 0.011810 0.000000
0.260193 0.000000 0.009277
0.396240 0.000000 0.003967
0.411011 0.010345 0.000000
0.403595 0.009277 0.000000
0.395782 0.008392 0.000000
0.357452 0.004456 0.000000
0.041168 0.009399 0.013031
0.302338 0.000000 0.010345
0.365540 0.004547 0.000000
0.355469 0.003387 0.000000
0.348572 0.001953 0.000000
0.469543 0.019501 0.000000
0.186340 0.015167 0.017242
0.683838 0.044250 0.000000
0.662262 0.039276 0.000000
0.662262 0.039276 0.000000
0.662262 0.039276 0.000000
0.662262 0.039276 0.000000
0.303101 0.068787 0.086914
0.578827 0.015839 0.021484
0.590912 0.031464 0.000000
0.615479 0.034119 0.000000
0.416412 0.010864 0.000000
0.535583 0.004059 0.000000
0.656555 0.038788 0.000000
0.662262 0.039276 0.000000
0.662262 0.039276 0.000000
0.335205 0.000000 0.005066
0.649841 0.033630 0.000000
0.626404 0.035339 0.000000
0.610046 0.033508 0.000000
0.590912 0.031464 0.000000
0.339508 0.000000 0.003571
0.530945 0.010773 0.000000
0.441772 0.013916 0.000000
0.034424 0.054474 0.036591
0.286560 0.009888 0.022980
0.434326 0.012817 0.000000
0.215149 0.034668 0.054840
0.426819 0.011993 0.000000
0.408569 0.009979 0.000000
0.393341 0.008057 0.000000
0.380768 0.006409 0.000000
0.276245 0.000000 0.009033
0.210022 0.028931 0.034241
0.671753 0.041168 0.000000
0.662262 0.039276 0.000000
0.662262 0.039276 0.000000
0.662262 0.039276 0.000000
0.662262 0.039276 0.000000
0.293427 0.047424 0.063232
0.597748 0.008820 0.017578
0.648468 0.037842 0.000000
0.659180 0.039276 0.000000
0.468781 0.016266 0.000000
0.585419 0.000000 0.009857
0.656555 0.038788 0.000000
0.643005 0.037201 0.000000
0.629181 0.035645 0.000000
0.351013 0.000000 0.008728
0.619537 0.038269 0.000000
0.581696 0.032379 0.000000
0.326752 0.000000 0.017151
0.018951 0.049866 0.047668
0.039032 0.049530 0.057343
0.460602 0.002258 0.000000
0.462921 0.016510 0.000000
0.444702 0.014343 0.000000
0.426819 0.011993 0.000000
0.371307 0.007172 0.000000
0.169037 0.034973 0.051666
0.383026 0.006836 0.000000
0.370575 0.005157 0.000000
0.358124 0.003510 0.000000
0.345551 0.002014 0.000000
0.261292 0.000000 0.004913
0.114288 0.026459 0.037323
0.662262 0.039276 0.000000
0.662262 0.039276 0.000000
0.662262 0.039276 0.000000
0.662262 0.039276 0.000000
0.662262 0.039276 0.000000
0.243927 0.056976 0.076752
0.548615 0.035950 0.054718
0.416412 0.010864 0.000000
0.416412 0.010864 0.000000
0.307587 0.000000 0.002167
0.345184 0.000000 0.006165
0.429565 0.000000 0.005035
0.084503 0.014832 0.015442
0.015961 0.040680 0.037018
0.021759 0.061890 0.052338
0.401733 0.008240 0.000000
0.380768 0.006409 0.000000
0.372772 0.005737 0.000000
0.365540 0.004547 0.000000
0.204895 0.000000 0.015656
0.324677 0.000000 0.002472
0.345551 0.002014 0.000000
0.335907 0.000580 0.000000
0.330688 0.000153 0.000000
0.297241 0.000000 0.003418
0.114288 0.026459 0.037323
0.313812 0.000000 0.002289
0.306915 0.000000 0.003510
0.304077 0.000000 0.003571
0.297211 0.000000 0.004791
0.233612 0.000000 0.014313
0.098175 0.048431 0.058075
0.662262 0.039276 0.000000
0.662262 0.039276 0.000000
0.662262 0.039276 0.000000
0.662262 0.039276 0.000000
0.662262 0.039276 0.000000
0.205811 0.103058 0.113281
0.544464 0.044678 0.065063
0.289032 0.000000 0.007477
0.287201 0.000000 0.005829
0.217438 0.000000 0.014587
0.242920 0.000000 0.015015
0.284973 0.000000 0.006256
0.287201 0.000000 0.005829
0.287201 0.000000 0.005829
0.161774 0.000000 0.016602
0.300934 0.000000 0.004852
0.287201 0.000000 0.005829
0.287201 0.000000 0.005829
0.287201 0.000000 0.005829
0.173889 0.000000 0.015869
0.273041 0.000000 0.008728
0.287201 0.000000 0.005829
0.287201 0.000000 0.005829
0.287201 0.000000 0.005829
0.253906 0.000000 0.011169
0.092346 0.030396 0.037750
0.287201 0.000000 0.005829
0.287201 0.000000 0.005829
0.284973 0.000000 0.006256
0.287201 0.000000 0.005829
0.221771 0.000000 0.014893
0.105438 0.038849 0.040283
0.287201 0.000000 0.005829
0.662262 0.039276 0.000000
0.662262 0.039276 0.000000
0.662262 0.039276 0.000000
0.653870 0.038483 0.000000
0.176727 0.070465 0.084564
0.557678 0.013794 0.036621
0.231262 0.000000 0.013947
0.233276 0.000000 0.013214
0.178223 0.000000 0.016663
0.194275 0.000000 0.008209
0.243713 0.000000 0.012390
0.246246 0.000000 0.012024
0.248749 0.000000 0.011719
0.131134 0.000000 0.013916
0.262054 0.000000 0.008179
0.260620 0.000000 0.009552
0.265839 0.000000 0.009094
0.268982 0.000000 0.009247
0.163361 0.000000 0.016510
0.270752 0.000000 0.009308
0.280121 0.000000 0.006836
0.282745 0.000000 0.006775
0.289917 0.000000 0.005737
0.282745 0.000000 0.006775
0.115692 0.046082 0.049652
0.304077 0.000000 0.003571
0.306915 0.000000 0.003510
0.311340 0.000000 0.002594
0.316315 0.000000 0.001923
0.237000 0.000000 0.011627
0.135895 0.035461 0.034424
0.330688 0.000153 0.000000
0.335907 0.000580 0.000000
0.662262 0.039276 0.000000
0.662262 0.039276 0.000000
0.662262 0.039276 0.000000
0.279022 0.064056 0.092224
0.560272 0.000000 0.013824
0.210754 0.000000 0.015900
0.218201 0.000000 0.014984
0.180603 0.000000 0.016327
0.203979 0.000000 0.016388
0.231262 0.000000 0.013947
0.235748 0.000000 0.012848
0.239258 0.000000 0.013428
0.114441 0.000000 0.013000
0.259827 0.000000 0.009949
0.253906 0.000000 0.011169
0.260620 0.000000 0.009552
0.268982 0.000000 0.009247
0.189423 0.000000 0.016418
0.295380 0.000000 0.001648
0.292664 0.000000 0.005646
0.301880 0.000000 0.003967
0.306915 0.000000 0.003510
0.304749 0.000000 0.002319
0.101349 0.036896 0.032501
0.333679 0.000153 0.000000
0.343079 0.001678 0.000000
0.353363 0.002747 0.000000
0.360596 0.003876 0.000000
0.295380 0.000000 0.001648
0.189331 0.061615 0.062775
0.390503 0.007996 0.000000
0.403595 0.009277 0.000000
0.662262 0.039276 0.000000
0.662262 0.039276 0.000000
0.662262 0.039276 0.000000
0.163879 0.089294 0.095459
0.511597 0.010895 0.027161
0.202972 0.000000 0.016449
0.204895 0.000000 0.015656
0.165344 0.000000 0.008026
0.182495 0.014648 0.024017
0.218201 0.000000 0.014984
0.223724 0.000000 0.014862
0.226288 0.000000 0.014526
0.121246 0.006439 0.019897
0.054932 0.023193 0.019287
0.000000 0.000000 0.000000
0.000000 0.000000 0.000000
0.000000 0.000000 0.000000
0.003326 0.020233 0.007263
0.275940 0.000000 0.001892
0.280121 0.000000 0.006836
0.287201 0.000000 0.005829
0.297211 0.000000 0.004791
0.287659 0.000000 0.001465
0.098816 0.028442 0.024048
0.323792 0.000000 0.001099
0.333679 0.000153 0.000000
0.341187 0.001007 0.000000
0.348572 0.001953 0.000000
0.282593 0.000000 0.003326
0.056122 0.034027 0.029205
0.395905 0.012848 0.000000
0.390503 0.007996 0.000000
0.398773 0.008484 0.000000
0.662262 0.039276 0.000000
0.662262 0.039276 0.000000
0.221771 0.062744 0.074677
0.508057 0.000000 0.007202
0.188293 0.000000 0.015778
0.194641 0.000000 0.016479
0.136353 0.000000 0.015503
0.167938 0.008575 0.016693
0.202972 0.000000 0.016449
0.202972 0.000000 0.016449
0.207428 0.000000 0.015350
0.111572 0.008240 0.021240
0.231506 0.000000 0.006317
0.218201 0.000000 0.014984
0.226288 0.000000 0.014526
0.231262 0.000000 0.013947
0.139984 0.000000 0.014740
0.230988 0.000000 0.014557
0.243713 0.000000 0.012390
0.248749 0.000000 0.011719
0.253906 0.000000 0.011169
0.257690 0.000000 0.010620
0.089691 0.061096 0.063599
0.273285 0.000000 0.008087
0.278503 0.000000 0.007751
0.282745 0.000000 0.006775
0.289917 0.000000 0.005737
0.234711 0.000000 0.006714
0.060181 0.060455 0.056610
0.322815 0.003479 0.000000
0.311340 0.000000 0.002594
0.316315 0.000000 0.001923
0.321564 0.000000 0.001648
0.328064 0.000000 0.000092
0.102539 0.067108 0.071014
0.253784 0.029297 0.038879
0.188293 0.000000 0.015778
0.188293 0.000000 0.015778
0.139984 0.000000 0.014740
0.153351 0.011627 0.018585
0.192230 0.000000 0.016846
0.192230 0.000000 0.016846
0.194641 0.000000 0.016479
0.107147 0.018555 0.029053
0.209198 0.000000 0.007904
0.204895 0.000000 0.015656
0.207428 0.000000 0.015350
0.210754 0.000000 0.015900
0.114471 0.000000 0.014771
0.194580 0.000000 0.015961
0.215271 0.000000 0.014862
0.218201 0.000000 0.014984
0.220215 0.000000 0.014252
0.201019 0.000000 0.010254
0.074310 0.046783 0.044708
0.231262 0.000000 0.013947
0.233276 0.000000 0.013214
0.224701 0.000000 0.006683
0.135956 0.078125 0.087341
0.017853 0.029785 0.018616
0.072540 0.037659 0.036346
0.251251 0.000000 0.011414
0.251251 0.000000 0.011414
0.253906 0.000000 0.011169
0.258911 0.000000 0.010559
0.260620 0.000000 0.009552
0.081024 0.050171 0.058746
0.186401 0.040955 0.060120
0.196564 0.000000 0.015686
0.194641 0.000000 0.016479
0.139984 0.000000 0.014740
0.146240 0.012695 0.018555
0.192230 0.000000 0.016846
0.192230 0.000000 0.016846
0.188293 0.000000 0.015778
0.100739 0.019989 0.030548
0.206665 0.000000 0.016968
0.194641 0.000000 0.016479
0.194641 0.000000 0.016479
0.196564 0.000000 0.015686
0.105377 0.000000 0.013519
0.186646 0.000000 0.016632
0.199463 0.000000 0.015839
0.199463 0.000000 0.015839
0.202972 0.000000 0.016449
0.184326 0.000000 0.015167
0.069153 0.034821 0.040161
0.204895 0.000000 0.015656
0.210754 0.000000 0.015900
0.210754 0.000000 0.015900
0.210754 0.000000 0.015900
0.161530 0.015106 0.036438
0.034546 0.049408 0.048065
0.140991 0.030884 0.044006
0.003326 0.020233 0.007263
0.042297 0.057373 0.058472
0.201233 0.027863 0.045715
0.230316 0.000000 0.013428
0.054962 0.097931 0.119659
0.148621 0.123413 0.160339
0.226288 0.000000 0.014526
0.220215 0.000000 0.014252
0.162689 0.000000 0.008118
0.157471 0.030151 0.031189
0.213745 0.000000 0.016083
0.210754 0.000000 0.015900
0.204895 0.000000 0.015656
0.104279 0.009766 0.021973
0.215698 0.000000 0.007324
0.199463 0.000000 0.015839
0.202972 0.000000 0.016449
0.199463 0.000000 0.015839
0.121246 0.006439 0.019897
0.198914 0.000061 0.017090
0.196564 0.000000 0.015686
0.202972 0.000000 0.016449
0.199463 0.000000 0.015839
0.180206 0.000000 0.016663
0.064484 0.044617 0.049347
0.196564 0.000000 0.015686
0.199463 0.000000 0.015839
0.199463 0.000000 0.015839
0.202972 0.000000 0.016449
0.152985 0.000458 0.016907
0.058716 0.053131 0.064911
0.199463 0.000000 0.015839
0.199463 0.000000 0.015839
0.202972 0.000000 0.016449
0.204895 0.000000 0.015656
0.202972 0.000000 0.016449
0.037598 0.103729 0.122711
0.126404 0.127777 0.171753
0.253906 0.000000 0.011169
0.246246 0.000000 0.012024
0.172424 0.000000 0.009247
0.181122 0.000000 0.001740
0.231262 0.000000 0.013947
0.228729 0.000000 0.014252
0.226288 0.000000 0.014526
0.127014 0.000000 0.006989
0.229004 0.000000 0.013519
0.218201 0.000000 0.014984
0.215271 0.000000 0.014862
0.215271 0.000000 0.014862
0.123657 0.000000 0.014496
0.221222 0.005310 0.014160
0.213745 0.000000 0.016083
0.210754 0.000000 0.015900
0.207428 0.000000 0.015350
0.205322 0.000000 0.013824
0.099243 0.067810 0.071594
0.207428 0.000000 0.015350
0.204895 0.000000 0.015656
0.204895 0.000000 0.015656
0.207428 0.000000 0.015350
0.137360 0.000000 0.014923
0.072021 0.052551 0.067871
0.202972 0.000000 0.016449
0.202972 0.000000 0.016449
0.204895 0.000000 0.015656
0.128021 0.081207 0.096924
0.016785 0.090210 0.095795
0.002014 0.093475 0.095978
0.144257 0.093201 0.132538
0.243713 0.000000 0.012390
0.243713 0.000000 0.012390
0.151215 0.000000 0.009644
0.187988 0.028473 0.017487
0.231262 0.000000 0.013947
0.231262 0.000000 0.013947
0.228729 0.000000 0.014252
0.128510 0.025513 0.030304
0.241638 0.000000 0.007202
0.226288 0.000000 0.014526
0.226288 0.000000 0.014526
0.226288 0.000000 0.014526
0.143463 0.004486 0.012085
0.196808 0.021606 0.024445
0.041595 0.062073 0.044647
0.095581 0.090027 0.086578
0.220215 0.000000 0.014252
0.223938 0.000000 0.014038
0.057495 0.084503 0.082275
0.226288 0.000000 0.014526
0.226288 0.000000 0.014526
0.223724 0.000000 0.014862
0.223724 0.000000 0.014862
0.165222 0.035950 0.052582
0.088013 0.071259 0.083160
0.218201 0.000000 0.014984
0.215271 0.000000 0.014862
0.213745 0.000000 0.016083
0.215271 0.000000 0.014862
0.213745 0.000000 0.016083
0.079926 0.095947 0.109436
0.150055 0.099060 0.123566
0.207428 0.000000 0.015350
0.207428 0.000000 0.015350
0.133453 0.000000 0.007812
0.154449 0.013000 0.012817
0.207428 0.000000 0.015350
0.210754 0.000000 0.015900
0.210754 0.000000 0.015900
0.112488 0.010071 0.014709
0.197296 0.000000 0.001648
0.210754 0.000000 0.015900
0.210754 0.000000 0.015900
0.213745 0.000000 0.016083
0.136658 0.005676 0.012726
0.199463 0.030853 0.035461
0.213745 0.000000 0.016083
0.215271 0.000000 0.014862
0.218201 0.000000 0.014984
0.206665 0.000000 0.016968
0.061157 0.036530 0.040192
0.223724 0.000000 0.014862
0.226288 0.000000 0.014526
0.228729 0.000000 0.014252
0.226288 0.000000 0.014526
0.157745 0.000000 0.023407
0.047272 0.054321 0.040192
0.246521 0.000000 0.001129
0.228729 0.000000 0.014252
0.226288 0.000000 0.014526
0.226288 0.000000 0.014526
0.226288 0.000000 0.014526
0.063385 0.068970 0.081177
0.214996 0.045197 0.059998
0.188293 0.000000 0.015778
0.185852 0.000000 0.016052
0.126312 0.000000 0.014343
0.136658 0.005676 0.012726
0.188293 0.000000 0.015778
0.188293 0.000000 0.015778
0.185852 0.000000 0.016052
0.112488 0.010071 0.014709
0.203552 0.000000 0.009399
0.185852 0.000000 0.016052
0.188293 0.000000 0.015778
0.192230 0.000000 0.016846
0.114807 0.009033 0.012238
0.169708 0.024994 0.040375
0.194641 0.000000 0.016479
0.194641 0.000000 0.016479
0.199463 0.000000 0.015839
0.158112 0.047638 0.057617
0.059845 0.050171 0.039642
0.199463 0.000000 0.015839
0.199463 0.000000 0.015839
0.202972 0.000000 0.016449
0.204895 0.000000 0.015656
0.184540 0.000000 0.009583
0.010101 0.045624 0.025177
0.215485 0.000000 0.014191
0.207428 0.000000 0.015350
0.207428 0.000000 0.015350
0.207428 0.000000 0.015350
0.207428 0.000000 0.015350
0.060059 0.045959 0.059082
0.198303 0.039581 0.052795
0.180603 0.000000 0.016327
0.178223 0.000000 0.016663
0.111694 0.000000 0.014679
0.121246 0.006439 0.019897
0.175354 0.000000 0.016510
0.175354 0.000000 0.016510
0.187927 0.000000 0.016113
0.033569 0.038879 0.030609
0.194275 0.000000 0.008209
0.175354 0.000000 0.016510
0.178223 0.000000 0.016663
0.178223 0.000000 0.016663
0.103973 0.000000 0.013092
0.149231 0.000671 0.015991
0.175354 0.000000 0.016510
0.175354 0.000000 0.016510
0.178223 0.000000 0.016663
0.141815 0.000000 0.015656
0.019104 0.038879 0.027008
0.033325 0.053619 0.036407
0.175354 0.000000 0.016510
0.180603 0.000000 0.016327
0.183441 0.000000 0.016449
0.167938 0.008575 0.016693
0.019623 0.061401 0.042206
0.192505 0.000000 0.015167
0.183441 0.000000 0.016449
0.185852 0.000000 0.016052
0.185852 0.000000 0.016052
0.185852 0.000000 0.016052
0.056183 0.020447 0.033783
0.176819 0.023621 0.039490
0.192230 0.000000 0.016846
0.188293 0.000000 0.015778
0.126312 0.000000 0.014343
0.126068 0.007202 0.012451
0.183441 0.000000 0.016449
0.180603 0.000000 0.016327
0.178223 0.000000 0.016663
0.111572 0.008240 0.021240
0.126068 0.007202 0.012451
0.091187 0.003296 0.004791
0.178223 0.000000 0.016663
0.175354 0.000000 0.016510
0.103973 0.000000 0.013092
0.139984 0.000000 0.014740
0.178223 0.000000 0.016663
0.175354 0.000000 0.016510
0.175354 0.000000 0.016510
0.136749 0.000000 0.008484
